!!!OTL: 富士山下
!!!OTA: C0605
!!!RRD: 2006
!!!MGN: 陳奕迅
!!!COM: Christopher Chak
!!!LYR: 林夕
!!!LAR: C.Y. Kong, 陳珀
!!!RNP: Alvin Leong
**kern	**text	**IPA
*clefGv2	*	*
*k[b-]	*	*
*F:	*	*
*M4/4	*	*
*MM105	*	*
*>verse	*>verse	*>verse
{8C	攔	laan4
8DL	路	lou6
8FJ	雨	jyu5
8GL	偏	pin1
8FJ	似	ci5
=1	=1	=1
8GL	雪	syut3
8AJ}	花	faa1
8r	.	.
{[8A	飲	jam2
8AL]	.	.
8AJ	泣	jap1
8GL	的	dik1
8FJ	你	nei5
=2	=2	=2
8GL	凍	dung3
8AJ}	嗎	maa1
8r	.	.
{[8A	這	ze2
8AL]	風	fung1
8AJ	.	.
8GL	褸	lau1
8FJ	我	ngo5
=3	=3	=3
8G.L	給	kap1
[16FJ	你	nei5
8FL]	.	.
8DJ	磨	mo4
8F.L	到	dou3
[16GJ	有	jau5
8GL]	.	.
8AJ	襟	kam1
=4	=4	=4
4A}	花	faa1
8r	.	.
{8C	連	lin4
8DL	調	diu6
8FJ	了	liu5
8GL	職	zik1
8FJ	也	jaa5
=5	=5	=5
8GL	不	bat1
8FJ}	怕	paa3
8r	.	.
{[8d	怎	zam2
8dL]	.	.
8cJ	麼	mo1
8AL	始	ci2
8GJ	終	zung1
=6	=6	=6
8GL	牽	hin1
8FJ}	掛	gwaa3
8r	.	.
{[8A	苦	fu2
8AL]	.	.
8AJ	心	sam1
8GL	選	syun2
8FJ	中	zung3
=7	=7	=7
8G.L	今	gam1
[16GJ	天	tin1
8GL]	.	.
8GJ	想	soeng2
8G.L	車	ce1
[16FJ	你	nei5
8FL]	.	.
8DJ	回	wui4
=8	=8	=8
4G}	家	gaa1
8r	.	.
*>verse	*>verse	*>verse
{8C	原	jyun4
8DL	諒	loeng6
8FJ	我	ngo5
8GL	不	bat1
8FJ	再	zoi3
=9	=9	=9
8GL	送	sung3
8AJ}	花	faa1
8r	.	.
{[8c	傷	soeng1
8cL]	.	.
8AJ	口	hau2
8GL	應	jing1
8FJ	要	jiu3
=10	=10	=10
8GL	結	git3
8AJ}	疤	baa1
8r	.	.
{[8d	花	faa1
8dL]	.	.
8AJ	瓣	faan2
8GL	鋪	pou1
8FJ	滿	mun5
=11	=11	=11
8G.L	心	sam1
[16FJ	裏	leoi5
8FL]	.	.
8DJ	墳	fan4
8F.L	場	coeng4
[16GJ	才	coi4
8GL]	.	.
8AJ	害	hoi6
=12	=12	=12
4c}	怕	paa3
8r	.	.
{8C	如	jyu4
8DL	若	joek3
8FJ	你	nei5
8GL	非	fei1
8FJ	我	ngo5
=13	=13	=13
8GL	不	bat1
8FJ}	嫁	gaa3
8r	.	.
{[8d	彼	bei2
8dL]	.	.
8cJ	此	ci2
8AL	終	zung1
8GJ	必	bit1
=14	=14	=14
8GL	火	fo2
8FJ}	化	faa3
8r	.	.
{[8A	一	jat1
8AL]	.	.
8AJ	生	sang1
8GL	一	jat1
8FJ	世	sai3
=15	=15	=15
8G.L	等	dang1
[16GJ	一	jat1
8GL]	.	.
8GJ	天	tin1
8G.L	需	seoi1
[16FJ	要	jiu3
8FL]	.	.
8DJ	代	doi6
=16	=16	=16
4F}	價	gaa3
8r	.	.
*>chorus	*>chorus	*>chorus
{8F	誰	seoi4
8fL	都	dou1
8eJ	只	zi2
8eL	得	dak1
8dJ	那	naa5
=17	=17	=17
8e.L	雙	soeng1
[16dJ	手	sau2
8dL]}	.	.
{8cJ	靠	kaau3
8dL	擁	jung2
8cJ	抱	pou5
8AL	亦	jik6
8GJ	難	naan4
=18	=18	=18
8AL	任	jam6
8cJ	你	nei5
8dL	擁	jung2
8cJ}	有	jau5
8r	.	.
{8c	要	jiu3
8dL	擁	jung2
8cJ	有	jau5
=19	=19	=19
8d.L	先	sin1
[16dJ	必	bit1
8dL]	.	.
8dJ	懂	dung2
8d.L	失	sat1
[16cJ	去	heoi3
8cL]	.	.
8dJ	怎	zam2
=20	=20	=20
8c	接	zip3
4.A}	受	sau6
8r	.	.
{8F	曾	cang4
8GL	沿	jyun4
8AJ	着	zoek6
=21	=21	=21
8cL	雪	syut3
8AJ	路	lou6
8GL	浪	long6
8FJ}	遊	jau4
8r	.	.
{8F	爲	wai4
8GL	何	ho4
8AJ	爲	wai6
=22	=22	=22
8dL	好	hou2
8AJ	事	si6
8GL	淚	leoi6
8FJ}	流	lau4
8r	.	.
{8F	誰	seoi4
8FL	能	nang4
8FJ	憑	pang4
=23	=23	=23
8f.L	愛	oi3
[16fJ	意	ji3
8fL]	.	.
8fJ	要	jiu3
8f.L	富	fu3
[16dJ	士	si6
8dL]	.	.
8fJ	山	saan1
=24	=24	=24
4.d	私	si1
8c}	有	jau5
8r	.	.
{8F	何	ho4
8fL	不	bat1
8eJ	把	baa2
=25	=25	=25
8fL	悲	bei1
8eJ	哀	oi1
8dL	感	gam2
8cJ}	覺	gok3
{8dL	假	gaa2
8cJ	設	cit3
8AL	是	si6
8GJ	來	loi4
=26	=26	=26
8AL	自	zi6
8cJ	你	nei5
8dL	虛	heoi1
8cJ}	構	kau3
8r	.	.
{8c	試	si3
8dL	管	gun2
8cJ	裏	leoi5
=27	=27	=27
8d.L	找	zaau2
[16dJ	不	bat1
8dL]	.	.
8dJ	到	dou2
8d.L	它	taa1
[16cJ	染	jim5
8cL]	.	.
8dJ	污	wu1
=28	=28	=28
8c	眼	ngaan5
4.A}	眸	mau6
8r	.	.
{8F	前	cin4
8GL	塵	can4
8AJ	硬	ngaang6
=29	=29	=29
8cL	化	faa3
8AJ	像	zoeng6
8GL	石	sek6
8FJ}	頭	tau4
8r	.	.
{8F	隨	ceoi4
8GL	緣	jyun4
8AJ	地	dei6
=30	=30	=30
8dL	拋	paau1
8AJ	下	haa3
8GL	便	bin3
8FJ	逃	tou4
[2f	走	zau2
=31	=31	=31
2f]}	.	.
8r;	.	.
{8f	我	ngo5
8dL	絕	zyut6
8fJ	不	bat1
=32	=32	=32
8d	罕	hon2
4c}	有	jau5
{8c	往	wong5
8dL	街	gaai1
8cJ	裏	leoi5
8AL	繞	jiu2
8GJ	過	gwo3
=33	=33	=33
8A	一	jat1
4G}	周	zau1
{8F	我	ngo5
8D.L	便	bin6
[16FJ	化	faa3
8FL]	.	.
8GJ	烏	wu1
=34	=34	=34
2F}	有	jau5
2r	.	.
=35	=35	=35
4r	.	.
8r	.	.
*>verse	*>verse	*>verse
{8C	情	cing4
8DL	人	jan4
8FJ	節	zit3
8GL	不	bat1
8FJ	要	jiu3
=36	=36	=36
8GL	說	syut3
8AJ}	穿	cyun1
8r	.	.
{[8A	只	zi2
8AL]	.	.
8AJ	敢	gam2
8GL	撫	fu2
8FJ	你	nei5
=37	=37	=37
8GL	髮	faat3
8AJ}	端	dyun1
8r	.	.
{[8A	這	ze2
8AL]	.	.
8AJ	種	zung2
8GL	姿	zi1
8FJ	態	taai3
=38	=38	=38
8G.L	可	ho2
[16FJ	會	wui5
8FL]	.	.
8DJ	令	ling6
8F.L	你	nei5
[16GJ	更	gang3
8GL]	.	.
8AJ	心	sam1
=39	=39	=39
4A}	酸	syun1
8r	.	.
{8C	留	lau4
8DL	在	zoi6
8FJ	汽	hei3
8GL	車	ce1
8FJ	裏	leoi5
=40	=40	=40
8GL	取	ceoi2
8FJ}	暖	nyun5
8r	.	.
{[8c	應	jing1
8cL]	.	.
8AJ	該	goi1
8GL	怎	zam2
8AJ	麼	mo1
=41	=41	=41
8GL	規	kwai1
8FJ}	勸	hyun3
8r	.	.
{[8A	怎	zam2
8AL]	.	.
8AJ	麼	mo1
8GL	可	ho2
8FJ	以	ji5
=42	=42	=42
8G.L	將	zoeng1
[16GJ	手	sau2
8GL]	.	.
8GJ	腕	wun2
8G.L	忍	jan2
[16FJ	痛	tung3
8FL]	.	.
8DJ	劃	waak6
=43	=43	=43
4G}	損	syun2
8r	.	.
*>verse	*>verse	*>verse
{8C	人	jan4
8DL	活	wut6
8FJ	到	dou3
8GL	幾	gei2
8FJ	歲	seoi3
=44	=44	=44
8G	算	syun3
4A}	短	dyun2
{[8c	失	sat1
8cL]	.	.
8AJ	戀	lyun2
8GL	只	zi2
8FJ	有	jau5
=45	=45	=45
8.GL	更	gang3
[16AJ	短	dyun2
8AL]}	.	.
{[8dJ	歸	gwai1
8dL]	.	.
8AJ	家	gaa1
8GL	需	seoi1
8FJ	要	jiu3
=46	=46	=46
8G.L	幾	gei2
[16FJ	里	lei5
8FL]	.	.
8DJ	路	lou6
8F.L	誰	seoi4
[16GJ	能	nang4
8GL]	.	.
8AJ	預	jyu6
=47	=47	=47
4c}	算	syun3
8r	.	.
{8C	忘	mong4
8DL	掉	diu6
8FJ	我	ngo5
8GL	跟	gan1
8FJ	你	nei5
=48	=48	=48
8GL	恩	jan1
8FJ}	怨	jyun3
8r	.	.
{[8d	櫻	jing1
8dL]	.	.
8cJ	花	faa1
8AL	開	hoi1
8GJ	了	liu5
=49	=49	=49
(16AL	幾	gei2
16G)P	.	.
8FJ}	轉	zyun3
8r	.	.
{[8A	東	dung1
8AL]	.	.
8AJ	京	ging1
8GL	之	zi1
8FJ	旅	leoi5
=50	=50	=50
8G.L	一	jat1
[16GJ	早	zou2
8GL]	.	.
8GJ	比	bei2
8G.L	一	jat1
[16FJ	世	sai3
8FL]	.	.
8DJ	遙	jiu4
=51	=51	=51
4F}	遠	jyun5
8r	.	.
*>chorus	*>chorus	*>chorus
{8F	誰	seoi4
8fL	都	dou1
8eJ	只	zi2
8eL	得	dak1
8dJ	那	naa5
=52	=52	=52
8e.L	雙	soeng1
[16dJ	手	sau2
8dL]}	.	.
{8cJ	靠	kaau3
8dL	擁	jung2
8cJ	抱	pou5
8AL	亦	jik6
8GJ	難	naan4
=53	=53	=53
8AL	任	jam6
8cJ	你	nei5
8dL	擁	jung2
8cJ}	有	jau5
8r	.	.
{8c	要	jiu3
8dL	擁	jung2
8cJ	有	jau5
=54	=54	=54
8d.L	先	sin1
[16dJ	必	bit1
8dL]	.	.
8dJ	懂	dung2
8d.L	失	sat1
[16cJ	去	heoi3
8cL]	.	.
8dJ	怎	zam2
=55	=55	=55
8c	接	zip3
4.A}	受	sau6
8r	.	.
{8F	曾	cang4
8GL	沿	jyun4
8AJ	着	zoek6
=56	=56	=56
8cL	雪	syut3
8AJ	路	lou6
8GL	浪	long6
8FJ}	遊	jau4
8r	.	.
{8F	爲	wai4
8GL	何	ho4
8AJ	爲	wai6
=57	=57	=57
8dL	好	hou2
8AJ	事	si6
8GL	淚	leoi6
8FJ}	流	lau4
8r	.	.
{8F	誰	seoi4
8FL	能	nang4
8FJ	憑	pang4
=58	=58	=58
8f.L	愛	oi3
[16fJ	意	ji3
8fL]	.	.
8fJ	要	jiu3
8f.L	富	fu3
[16dJ	士	si6
8dL]	.	.
8fJ	山	saan1
=59	=59	=59
4.d	私	si1
8c}	有	jau5
8r	.	.
{8F	何	ho4
8fL	不	bat1
8eJ	把	baa2
=60	=60	=60
8fL	悲	bei1
8eJ	哀	oi1
8dL	感	gam2
8cJ}	覺	gok3
{8dL	假	gaa2
8cJ	設	cit3
8AL	是	si6
8GJ	來	loi4
=61	=61	=61
8AL	自	zi6
8cJ	你	nei5
8dL	虛	heoi1
8cJ}	構	kau3
8r	.	.
{8c	試	si3
8dL	管	gun2
8cJ	裏	leoi5
=62	=62	=62
8d.L	找	zaau2
[16dJ	不	bat1
8dL]	.	.
8dJ	到	dou2
8d.L	它	taa1
[16cJ	染	jim5
8cL]	.	.
8dJ	污	wu1
=63	=63	=63
8c	眼	ngaan5
4.A}	眸	mau6
8r	.	.
{8F	前	cin4
8GL	塵	can4
8AJ	硬	ngaang6
=64	=64	=64
8cL	化	faa3
8AJ	像	zoeng6
8GL	石	sek6
8FJ}	頭	tau4
8r	.	.
{8F	隨	ceoi4
8GL	緣	jyun4
8AJ	地	dei6
=65	=65	=65
8dL	拋	paau1
8AJ	下	haa3
8GL	便	bin3
8FJ	逃	tou4
[2f	走	zau2
=66	=66	=66
2f]}	.	.
8r	.	.
{8f	我	ngo5
8dL	絕	zyut6
8fJ	不	bat1
=67	=67	=67
8d	罕	hon2
4c}	有	jau5
{8c	往	wong5
8dL	街	gaai1
8cJ	裏	leoi5
8AL	繞	jiu2
8GJ	過	gwo3
=68	=68	=68
8A	一	jat1
4G}	周	zau1
{8F	我	ngo5
8D.L	便	bin6
[16FJ	化	faa3
8FL]	.	.
8GJ	烏	wu1
=69	=69	=69
2F}	有	jau5
2r	.	.
=70	=70	=70
4r	.	.
8r	.	.
*>chorus	*>chorus	*>chorus
{8F	誰	seoi4
8fL	都	dou1
8eJ	只	zi2
8eL	得	dak1
8dJ	那	naa5
=71	=71	=71
8e.L	雙	soeng1
[16dJ	手	sau2
8dL]}	.	.
{8cJ	靠	kaau3
8dL	擁	jung2
8cJ	抱	pou5
8AL	亦	jik6
8GJ	難	naan4
=72	=72	=72
8AL	任	jam6
8cJ	你	nei5
8dL	擁	jung2
8cJ}	有	jau5
8r	.	.
{8c	要	jiu3
8dL	擁	jung2
8cJ	有	jau5
=73	=73	=73
8d.L	先	sin1
[16dJ	必	bit1
8dL]	.	.
8dJ	懂	dung2
8d.L	失	sat1
[16cJ	去	heoi3
8cL]	.	.
8dJ	怎	zam2
=74	=74	=74
8c	接	zip3
4.A}	受	sau6
8r	.	.
{8F	曾	cang4
8GL	沿	jyun4
8AJ	着	zoek6
=75	=75	=75
8cL	雪	syut3
8AJ	路	lou6
8GL	浪	long6
8FJ}	遊	jau4
8r	.	.
{8F	爲	wai4
8GL	何	ho4
8AJ	爲	wai6
=76	=76	=76
8dL	好	hou2
8AJ	事	si6
8GL	淚	leoi6
8FJ}	流	lau4
8r	.	.
{8F	誰	seoi4
8FL	能	nang4
8FJ	憑	pang4
=77	=77	=77
8f.L	愛	oi3
[16fJ	意	ji3
8fL]	.	.
8fJ	要	jiu3
8f.L	富	fu3
[16dJ	士	si6
8dL]	.	.
8fJ	山	saan1
=78	=78	=78
4.d	私	si1
8c}	有	jau5
8r	.	.
{8F	何	ho4
8fL	不	bat1
8eJ	把	baa2
=79	=79	=79
8fL	悲	bei1
8eJ	哀	oi1
8dL	感	gam2
8cJ}	覺	gok3
{8dL	假	gaa2
8cJ	設	cit3
8AL	是	si6
8GJ	來	loi4
=80	=80	=80
8AL	自	zi6
8cJ	你	nei5
8dL	虛	heoi1
8cJ}	構	kau3
8r	.	.
{8c	試	si3
8dL	管	gun2
8cJ	裏	leoi5
=81	=81	=81
6d	找	zaau2
6d	不	bat1
6d	到	dou2
6d	它	taa1
6c	染	jim5
6d	污	wu1
=82	=82	=82
8c	眼	ngaan5
4.A}	眸	mau6
8r	.	.
{8F	前	cin4
8GL	塵	can4
8AJ	硬	ngaang6
=83	=83	=83
8cL	化	faa3
8AJ	像	zoeng6
8GL	石	sek6
8FJ}	頭	tau4
8r	.	.
{8F	隨	ceoi4
8GL	緣	jyun4
8AJ	地	dei6
=84	=84	=84
8dL	拋	paau1
8AJ	下	haa3
8GL	便	bin3
8FJ	逃	tou4
[2f	走	zau2
=85	=85	=85
2f]}	.	.
8r;	.	.
{8f	我	ngo5
8dL	絕	zyut6
8fJ	不	bat1
=86	=86	=86
8d	罕	hon2
4c}	有	jau5
{8c	往	wong5
8dL	街	gaai1
8cJ	裏	leoi5
8AL	繞	jiu2
8GJ	過	gwo3
=87	=87	=87
8A	一	jat1
4G}	周	zau1
{8F	我	ngo5
8D.L	便	bin6
[16FJ	化	faa3
8FL]	.	.
8GJ	烏	wu1
=88	=88	=88
2.F}	有	jau5
4r	.	.
=89	=89	=89
2r	.	.
8r	.	.
*>coda	*>coda	*>coda
{8F	你	nei5
8DL	還	waan4
8FJ	嫌	jim4
=90	=90	=90
8d	不	bat1
4c}	夠	gau3
{8c	我	ngo5
8dL	把	baa2
8cJ	這	ze5
8AL	陳	can4
8cJ	年	nin4
=91	=91	=91
8a	風	fung1
4g}	褸	lau1
{8f	送	sung3
8d.L	贈	zang6
[16fJ	你	nei5
8fL]	.	.
8gJ	解	gaai2
=92	=92	=92
2f}	咒	zau3
==	==	==
*-	*-	*-
